X:1
T: Dunkeld Harmitage
C:Niel Gow
R:Reel
Q: 232
K:Em
M:4/4
L:1/8
|:e|E2 B2 GE BG|Fd Ad FD AF|E2 B2 GE BG|AF dF E2 Ee|
E2 B2 GE BG|Fd Ad FD AF|E2 B2 GE BG|AF dF E2 Eg|
e2 g2 be ge|d2 fd ad fd|e2 g2 be ge|dB dF E2 Eg|
e2 g2 be ge|d2 fd ad fd|gb fa ef de|BF dF E2 E:|
